P2
64 64
255
#Alterações realizadas na imagem PGM
#1 - Imagem Iconizada.
124 109 107 106 120 143 113 124 124 125 137 140 130 122 109 102 83 89 88 110 89 102 85 96 150 153 133 115 184 196 160 201 204 204 204 204 205 204 204 205 203 140 104 111 143 162 158 143 128 135 168 205 205 205 206 206 207 207 207 208 208 209 209 209 120 126 113 103 107 103 124 121 119 118 137 147 142 122 106 112 97 92 122 103 178 153 176 154 177 182 221 169 160 229 220 231 212 210 206 210 210 206 205 205 128 106 106 134 141 150 155 142 131 128 197 207 207 207 207 207 207 208 208 209 210 210 211 211 113 107 114 110 100 103 111 122 122 114 121 136 133 134 115 103 102 93 106 149 169 192 215 222 214 224 217 234 191 233 220 231 227 226 210 214 206 211 201 133 95 122 120 132 149 152 132 112 122 139 208 208 208 208 209 209 209 210 210 211 213 214 213 213 113 107 98 109 112 92 93 120 126 115 111 122 123 125 117 106 99 115 105 129 165 197 196 224 233 230 229 230 239 240 233 239 230 235 224 215 199 209 152 88 125 105 114 123 133 129 115 120 121 179 209 209 209 210 210 210 211 212 213 215 220 219 215 215 109 107 96 97 112 113 104 112 114 130 117 115 119 123 120 103 91 92 123 105 142 182 200 216 229 235 237 234 247 248 246 248 244 245 236 219 213 177 107 98 111 107 107 119 119 120 141 132 142 196 210 210 210 211 211 212 219 222 218 225 228 227 225 224 112 109 104 95 101 102 106 106 124 109 130 117 116 110 102 91 105 98 104 100 119 164 213 212 223 235 240 236 244 252 251 253 254 247 239 225 212 131 97 130 89 95 109 104 117 140 152 128 146 210 210 211 211 212 212 229 251 253 244 253 254 253 253 253 110 112 106 97 88 90 92 99 126 111 107 112 99 110 111 113 94 93 82 112 86 139 205 228 225 236 238 233 237 251 252 252 252 252 244 225 194 114 112 119 99 92 93 110 125 138 123 116 156 211 211 212 212 213 216 249 255 254 254 255 255 255 255 255 108 107 107 101 95 91 90 90 117 113 110 118 123 106 96 88 93 93 89 83 118 132 194 231 238 235 235 238 237 247 249 247 245 251 249 234 194 108 137 108 94 102 104 113 127 107 105 136 168 211 212 213 213 214 219 253 255 255 255 255 255 255 255 255 113 105 109 105 99 91 90 92 108 126 113 98 103 93 78 65 72 81 84 70 117 138 197 225 239 234 230 236 243 237 249 246 243 245 245 238 221 114 112 93 101 106 108 114 106 85 90 123 173 211 212 213 213 214 220 253 255 255 255 255 255 255 255 255 114 108 109 111 100 97 94 90 96 117 124 103 99 100 97 99 106 102 80 66 95 101 173 218 243 236 232 233 237 229 240 244 244 239 244 222 213 121 89 94 109 101 90 84 76 80 79 112 187 214 213 213 214 215 219 251 255 255 255 255 255 255 255 255 112 114 109 112 106 100 95 95 97 129 108 74 69 71 62 72 87 93 101 74 63 79 133 214 234 235 236 236 229 232 227 233 242 237 245 217 205 108 92 91 102 99 103 88 79 64 80 113 165 180 204 214 215 215 219 252 255 255 255 255 255 255 255 255 114 112 109 115 109 99 102 97 92 122 106 76 69 64 73 71 84 86 79 90 63 58 110 199 232 230 236 234 228 229 234 232 234 236 241 227 185 100 106 116 119 124 110 87 66 76 81 87 81 66 95 168 215 216 220 252 255 255 255 255 255 255 255 255 113 108 107 113 111 103 94 96 95 109 108 82 72 63 58 76 82 92 105 99 81 67 62 170 225 228 234 226 221 219 224 220 223 217 233 225 162 116 139 130 130 128 109 90 73 68 53 36 23 28 37 62 168 218 221 250 255 255 255 255 255 255 255 255 116 109 109 108 115 105 95 93 100 103 106 62 66 65 64 103 110 102 108 128 117 109 96 141 197 210 218 206 197 190 200 195 204 190 209 201 160 157 151 158 141 122 126 98 106 47 38 21 18 21 25 34 87 212 224 250 255 255 255 255 255 255 255 255 115 114 104 109 114 112 105 113 150 197 209 66 45 58 58 115 127 117 111 130 143 137 148 148 183 190 196 186 168 168 172 164 174 172 185 178 174 176 166 161 145 137 133 146 115 38 32 21 18 20 22 28 63 196 228 235 241 255 254 254 255 255 255 255 105 110 99 103 113 116 100 105 127 177 205 103 42 62 104 108 136 138 129 144 148 145 157 163 177 186 176 164 160 145 146 143 138 147 158 171 185 184 166 164 155 155 154 120 102 51 37 23 19 20 22 36 61 171 196 197 233 254 239 253 255 255 255 255 108 112 106 112 107 102 103 104 107 130 163 130 48 60 86 121 135 144 151 146 146 153 158 171 180 172 165 145 135 131 118 120 122 137 140 161 173 174 177 157 152 145 145 139 128 88 62 32 19 20 26 39 62 167 166 166 173 191 239 255 255 255 255 255 108 109 110 113 110 106 107 143 170 189 209 108 43 67 83 118 139 147 150 148 154 156 167 177 172 155 141 122 107 127 99 101 116 126 130 135 170 173 174 170 161 153 147 130 111 77 107 52 20 20 26 36 53 126 148 154 153 160 198 254 255 255 255 255 110 113 118 111 148 185 196 182 174 178 164 71 42 71 74 116 144 145 154 161 163 154 176 180 169 147 136 124 107 105 99 85 99 96 136 133 173 173 174 174 168 170 154 141 133 111 87 16 17 21 25 30 44 108 136 125 129 143 171 254 255 255 255 255 111 113 134 124 176 168 203 212 228 199 219 180 90 78 114 134 142 157 165 159 164 169 170 189 188 181 162 140 117 84 93 88 110 90 150 134 177 173 177 172 163 169 164 147 146 137 20 15 18 23 26 37 74 124 155 156 156 145 156 249 255 255 255 255 113 116 196 210 146 163 178 201 234 231 221 165 104 95 115 142 158 167 169 163 165 170 172 199 187 176 151 126 136 71 102 90 104 83 141 146 162 173 178 163 158 167 165 147 150 61 13 16 20 26 34 70 81 140 146 144 151 150 155 254 255 255 255 254 103 106 197 247 177 144 161 202 188 203 162 121 121 121 128 132 155 178 178 180 163 167 159 193 179 161 133 157 137 72 118 77 111 75 128 154 159 152 175 151 144 157 166 156 110 25 15 17 23 32 51 76 96 143 141 145 140 135 157 254 255 255 255 255 97 102 190 249 208 135 164 180 189 198 213 205 159 136 140 148 158 171 178 170 163 155 168 188 197 128 138 154 147 100 111 65 106 75 142 149 109 130 158 130 123 141 155 137 73 31 22 23 31 45 74 79 106 128 134 140 141 144 180 255 255 255 255 255 95 100 177 249 167 118 153 182 179 212 217 218 203 189 155 152 161 161 168 159 160 168 177 174 167 111 130 161 137 104 86 71 103 92 122 134 71 111 153 169 145 142 152 124 61 16 22 25 42 63 74 87 106 129 141 144 143 138 199 255 255 255 255 255 94 98 160 249 193 114 158 151 191 209 201 187 206 199 155 131 122 119 126 100 101 109 142 160 136 83 117 143 122 116 69 62 95 120 119 130 69 117 138 102 91 83 129 141 60 21 23 31 45 53 72 84 102 117 141 145 146 144 221 255 255 255 255 255 149 144 169 244 224 125 147 167 210 220 225 225 202 176 161 121 114 155 126 54 91 81 42 62 93 102 105 115 124 109 80 60 90 92 111 97 108 91 55 60 77 54 142 134 59 23 26 32 35 44 71 71 90 92 111 123 125 135 243 255 255 255 255 255 96 86 118 237 243 195 143 201 230 233 232 221 211 185 135 140 144 158 144 56 76 87 64 54 64 95 115 112 72 83 74 80 80 81 87 104 88 56 61 70 61 72 137 110 91 31 29 38 41 47 66 74 101 110 128 123 120 126 200 213 216 247 254 254 94 89 108 241 246 217 138 194 209 216 216 214 203 168 145 159 158 144 147 83 51 87 88 78 88 57 99 123 92 84 76 73 78 77 99 80 52 73 80 64 51 104 102 62 20 24 31 38 45 65 85 61 88 88 105 112 118 131 130 114 123 119 170 240 94 86 95 234 244 148 140 213 220 217 213 214 210 208 187 151 149 132 132 109 48 47 76 79 54 45 69 131 116 87 69 65 66 87 113 50 30 35 40 47 88 82 92 56 18 25 29 44 66 80 64 61 80 96 108 110 110 138 115 103 97 107 108 135 87 86 87 214 218 148 155 218 227 228 222 208 192 198 189 142 124 120 113 89 77 57 41 37 38 48 70 125 124 79 60 63 70 100 114 61 57 66 81 84 63 64 72 31 25 27 31 51 72 72 41 65 55 61 77 83 97 141 113 83 88 99 123 135 91 89 86 197 160 109 149 222 217 204 205 219 213 185 144 126 111 119 103 59 62 79 100 99 96 79 70 120 132 91 56 62 66 110 107 76 111 120 106 86 77 65 29 19 19 24 34 43 59 68 27 62 80 89 95 89 99 151 130 89 101 122 127 140 94 86 101 123 103 82 158 208 212 222 216 195 164 145 123 111 100 103 117 98 72 77 80 109 129 121 64 79 130 102 63 61 77 118 90 60 122 112 95 82 78 53 34 14 14 23 30 34 54 60 29 54 68 88 93 93 112 156 160 95 102 113 126 139 114 105 95 90 77 51 161 165 194 211 212 177 167 166 148 131 126 114 94 92 99 83 81 81 113 129 66 45 108 108 79 85 95 118 66 61 110 95 91 82 56 55 46 20 7 13 28 36 63 53 32 47 55 73 83 84 109 160 155 115 92 109 117 113 117 80 62 55 48 57 168 170 205 193 190 184 172 163 162 156 136 104 87 72 75 85 86 103 104 113 87 38 88 109 104 99 121 114 75 54 94 103 96 66 51 58 55 18 6 7 22 39 61 48 35 43 45 53 60 81 89 102 158 169 118 99 109 128 129 52 54 48 37 65 164 166 202 204 201 188 171 164 151 166 114 88 82 95 103 61 98 97 96 104 87 51 85 111 114 102 119 131 94 69 92 110 104 50 48 58 54 15 7 7 17 39 68 42 30 39 38 44 60 72 92 137 163 177 125 125 110 113 144 63 49 47 63 92 145 142 164 157 167 170 170 170 175 151 113 108 84 95 83 74 101 117 114 97 93 79 68 108 116 102 108 125 97 97 115 123 137 81 52 56 52 11 7 7 13 37 70 35 29 37 44 44 56 89 143 143 171 183 155 118 111 118 143 82 54 76 77 79 138 149 164 176 192 189 177 186 188 124 113 92 94 52 32 44 86 138 111 99 109 96 55 94 100 90 99 114 82 109 107 114 129 71 69 78 65 33 23 8 10 32 63 45 31 34 43 55 65 91 168 169 188 205 190 128 94 94 131 80 78 72 53 52 131 143 156 194 202 198 196 177 153 116 106 105 79 32 26 49 97 132 104 101 109 89 57 77 81 79 80 92 79 107 111 116 146 118 69 67 61 28 28 42 31 39 66 70 27 37 45 53 67 114 110 164 163 213 196 179 104 138 88 73 66 45 46 42 121 138 170 209 196 193 173 167 126 116 107 89 85 47 64 77 124 157 127 88 67 93 54 61 60 70 68 69 66 113 107 109 116 89 87 82 36 38 40 25 16 28 49 79 42 47 45 52 68 66 120 162 157 190 166 165 138 209 70 97 55 42 50 77 112 131 156 199 195 187 179 143 127 105 106 98 108 69 47 71 110 134 96 91 97 104 79 30 34 51 47 32 98 112 101 104 68 100 87 70 63 51 32 27 40 29 42 77 34 36 50 60 56 82 109 104 101 131 147 168 174 251 66 110 58 59 69 61 96 130 170 209 195 197 161 131 107 98 111 90 86 61 74 90 90 118 116 111 103 108 116 78 52 62 58 86 111 101 87 35 68 70 90 85 49 52 41 47 36 24 55 86 29 34 45 55 72 78 65 65 75 108 154 173 207 254 63 104 49 66 58 68 103 137 185 196 185 191 174 124 125 93 110 79 74 73 79 66 88 78 74 91 96 97 102 101 95 74 102 96 81 65 48 20 53 80 61 44 69 53 54 40 33 40 57 79 34 32 38 54 49 66 52 72 83 108 119 126 208 237 64 96 52 72 76 61 98 153 190 188 168 186 176 134 101 97 110 53 83 74 50 84 79 68 71 75 66 64 64 71 85 77 72 65 64 56 29 24 68 61 64 52 50 66 75 57 41 30 44 86 51 35 39 52 38 45 80 87 100 93 78 102 238 253 69 96 73 46 60 69 106 159 187 181 160 185 165 134 111 121 70 84 57 38 62 80 62 68 66 69 62 52 50 49 53 58 59 61 64 45 18 48 66 66 51 48 60 61 75 81 64 48 32 74 63 49 42 49 36 31 61 99 95 81 74 140 251 255 63 93 86 45 50 75 117 165 196 183 192 196 163 134 120 108 74 41 35 49 74 59 59 67 64 63 56 50 48 49 52 58 59 63 58 33 28 72 63 54 40 45 57 58 63 74 82 68 28 64 67 36 52 52 30 23 35 53 83 95 115 144 254 255 39 71 93 46 41 46 117 167 183 196 194 193 164 141 131 92 34 33 41 85 54 57 58 67 61 59 52 47 49 50 50 54 55 55 40 32 55 79 67 38 32 42 55 61 64 75 85 90 39 49 73 36 42 58 36 25 32 39 50 56 74 211 254 255 28 40 95 48 39 34 130 156 179 187 190 180 163 131 130 85 34 38 71 61 55 56 56 65 55 54 49 48 49 50 51 55 53 44 30 46 84 91 73 25 13 42 53 62 82 91 97 91 43 50 78 45 49 53 64 35 31 44 62 79 146 254 255 255 40 29 37 48 47 56 145 160 168 153 164 163 150 141 124 101 41 59 66 51 55 57 56 64 53 53 50 52 52 56 56 52 48 38 33 49 87 92 81 16 10 35 51 64 83 87 96 62 46 41 80 69 74 71 65 69 47 46 74 164 254 255 255 255 53 40 28 24 54 82 148 153 128 121 143 168 154 144 122 109 56 54 64 53 56 58 57 59 53 54 52 55 58 57 55 51 45 39 37 47 93 89 102 27 13 38 52 60 71 94 96 37 60 51 78 70 79 88 117 81 75 79 159 254 254 255 255 255 68 52 37 27 46 134 147 138 138 129 176 164 165 148 117 119 60 58 59 56 58 58 56 54 53 54 53 56 57 55 53 50 47 47 35 45 91 88 100 76 12 41 60 72 88 101 60 22 58 59 82 80 80 85 182 211 179 223 254 255 255 255 255 255 71 66 53 42 113 149 146 131 159 170 194 195 189 176 117 118 54 62 54 57 59 56 54 54 54 55 52 54 54 52 50 50 51 46 28 39 70 65 84 103 50 59 70 60 86 91 26 23 33 51 91 78 90 170 215 213 207 236 255 255 255 255 255 255 60 66 73 123 147 148 144 141 162 199 195 204 209 196 132 117 64 62 55 59 59 55 55 54 53 52 53 55 53 50 50 48 46 37 25 42 23 54 65 89 93 94 93 95 100 46 23 30 31 54 94 80 136 203 223 222 216 231 254 255 255 255 255 255 75 113 149 148 145 143 138 137 172 196 192 193 207 200 153 123 63 62 60 59 55 54 54 53 53 55 57 55 53 50 48 47 43 34 29 39 12 18 58 69 81 96 101 93 46 23 27 35 41 59 103 86 114 174 194 194 205 218 240 250 249 249 248 248 156 155 147 142 139 137 132 135 170 178 181 183 203 199 164 132 59 60 56 55 55 55 55 55 56 56 55 53 50 49 48 47 43 38 18 37 17 17 15 27 50 55 50 30 24 26 34 38 43 65 105 86 108 121 119 128 156 193 213 216 215 214 213 211 154 143 136 132 131 127 121 117 149 171 193 193 201 192 168 136 57 60 56 56 56 57 56 57 58 54 51 49 49 47 45 46 41 23 17 39 23 19 13 25 37 36 33 29 26 27 36 39 48 80 116 130 158 160 162 166 182 195 206 209 209 208 207 206 140 129 126 122 116 110 103 106 133 174 202 193 171 194 166 126 57 60 57 57 57 58 57 55 52 50 50 50 48 40 31 26 21 19 23 45 28 19 24 37 39 38 39 36 34 34 39 45 48 99 170 199 198 189 191 197 203 205 206 207 207 206 204 204 119 113 108 106 99 88 82 97 144 187 217 184 192 213 168 134 60 59 56 55 57 56 53 51 51 53 46 30 18 20 28 31 28 32 34 49 32 45 53 43 40 40 38 37 36 42 46 54 56 110 164 187 196 201 199 203 204 204 204 204 204 203 203 202 99 95 91 87 78 71 72 70 136 193 209 208 211 216 172 140 58 56 57 58 57 52 51 48 37 23 14 22 27 34 35 32 36 37 39 60 77 80 68 51 41 40 40 37 42 45 46 48 61 139 154 180 204 203 204 205 204 204 203 203 202 201 201 200 83 79 72 70 68 65 65 66 142 175 204 224 208 215 176 140 57 58 57 54 50 46 31 21 19 21 27 30 34 34 36 36 38 52 87 99 99 92 75 57 46 43 46 44 46 48 49 57 88 150 149 169 189 199 206 205 205 203 202 201 201 200 199 199 69 68 67 66 65 64 63 64 150 182 178 218 203 183 169 130 55 52 49 44 21 19 25 24 27 30 35 36 37 37 39 50 79 110 114 110 112 101 81 65 47 47 43 46 49 52 58 57 118 144 146 156 179 190 200 211 211 205 202 200 200 199 198 198 56 59 57 57 57 57 57 66 157 184 163 208 181 180 147 110 51 44 25 17 11 4 15 25 31 34 36 39 40 57 92 107 120 123 119 120 118 107 86 81 49 47 46 50 48 55 62 81 141 145 153 155 171 184 195 206 208 201 199 199 198 198 197 197 50 49 49 47 46 44 46 55 165 174 155 200 215 192 151 102 20 5 3 7 17 4 0 14 31 36 44 72 99 118 125 121 126 124 125 121 119 113 92 91 62 50 48 53 62 59 61 116 135 149 155 159 177 193 200 206 212 202 199 198 198 197 196 196 46 44 41 39 38 37 38 54 190 170 173 193 195 198 172 117 10 5 3 3 8 11 2 9 56 81 107 112 119 127 128 132 123 127 127 121 123 119 108 108 86 48 49 51 62 69 93 137 142 154 150 162 177 188 200 202 202 201 198 196 196 196 195 195 34 33 35 37 36 31 22 69 160 176 166 172 194 187 180 144 9 6 4 4 3 9 9 23 82 108 107 124 132 133 135 125 126 133 124 125 125 129 124 123 85 56 48 52 56 87 126 133 144 158 153 166 171 187 184 187 198 200 196 196 196 195 194 193 